X:1
T:V. Shall I strive with wordes to move,
T:V. Shall I strive with wordes to move,
T:CANTUS.
T:John Dowland
C:John Dowland
L:1/8
M:3/2
K:Emin
V:1 treble 
V:1
|: G3 F E2 F2 G3 A | B8 z2 d2 | ^c3 B A2 G2 F2 E2 | B12 | B3 ^c d6 A2 | B6 A2 G4 | A3 G F2 E2 F4 | %7
w: Shall I strive with wordes to|move, when|deedes re- ceive not due re-|gard?|Shall I speake, and|ney- ther please,|nor be free- ly *|
w: Griefe a- las though all in|vaine, her|rest- lesse an- guish must re-|veale:|Shee a- lone my|wound shall know,|Though she will not *|
 E12 :: F8 G4 | G4 E4 A4 | A2 A4 G2 F2 E2 F12 | G8 A4 | B4 c8 |"^(1)" B16- B8 || B12- | B2 B2 A8 | %16
w: heard?|All woes|have end, though|a while de- * laid, *|our pa-|tience pro-|ving. *|O|* that times|
w: heale.|Stormes calme|at last, and|why may not * shee *|leave off|her frow-|ning? *|O|* sweet Love,|
 G8 G4 | G8 B2 B2 | d6 d2 c2 B2 | B8 A4 B16- B8 :: z2 B2 d4 A4 | z2 A2 c4 G4 | z2 B2 A2 G2 G2 F2 | %23
w: strange could|but make, but|make her lo- *|ving. * * *|I woo'd her,|I lov'd her,|and non but her ad-|
w: help my|af- fe- cti-|* on crown- *|ing. * * *||||
 G12 | B4 A4 G4 | F4 z2 B2 (c3 B | A2) G2 F2 E2 F4 !fermata!E12 :| %27
w: mire.|O come deare|joy, and an- *|* swere my de- * sire.|
w: ||||

